src/assets/icons/house-circle-check.svg

<svg width="24" height="24" viewBox="0 0 24 24" fill="none" xmlns="http://www.w3.org/2000/svg">
<path d="M24 9.56099V11.5C24 11.776 23.776 12 23.5 12C23.224 12 23 11.776 23 11.5V9.56099C23 8.39699 22.423 7.31199 21.458 6.65999L13.958 1.59899C12.769 0.795994 11.232 0.795994 10.043 1.59899L2.542 6.65899C1.576 7.31099 1 8.39599 1 9.55999V19.499C1 21.429 2.57 22.999 4.5 22.999H11.5C11.776 22.999 12 23.223 12 23.499C12 23.775 11.776 23.999 11.5 23.999H4.5C2.019 23.999 0 21.98 0 19.499V9.55999C0 8.06299 0.741 6.66799 1.983 5.83099L9.483 0.770994C11.013 -0.261006 12.988 -0.261006 14.517 0.770994L22.017 5.83199C23.259 6.66999 24 8.06399 24 9.56099ZM24 17.5C24 21.084 21.084 24 17.5 24C13.916 24 11 21.084 11 17.5C11 13.916 13.916 11 17.5 11C21.084 11 24 13.916 24 17.5ZM23 17.5C23 14.468 20.533 12 17.5 12C14.467 12 12 14.468 12 17.5C12 20.532 14.467 23 17.5 23C20.533 23 23 20.532 23 17.5ZM20.143 16.131L17.437 18.749C17.101 19.08 16.552 19.082 16.214 18.753L14.851 17.408C14.655 17.214 14.338 17.216 14.144 17.412C13.95 17.609 13.952 17.926 14.149 18.119L15.513 19.466C15.875 19.82 16.35 19.997 16.825 19.997C17.3 19.997 17.776 19.819 18.136 19.464L20.839 16.85C21.037 16.658 21.043 16.341 20.851 16.143C20.66 15.945 20.343 15.94 20.143 16.131Z" fill="#787891"/>
</svg>

<?xml version="1.0" encoding="UTF-8"?>
<svg xmlns="http://www.w3.org/2000/svg" id="Layer_1" data-name="Layer 1" viewBox="0 0 24 24">
  <path d="m24,9.561v1.939c0,.276-.224.5-.5.5s-.5-.224-.5-.5v-1.939c0-1.164-.577-2.249-1.542-2.901L13.958,1.599c-1.189-.803-2.726-.803-3.915,0L2.542,6.659c-.966.652-1.542,1.737-1.542,2.901v9.939c0,1.93,1.57,3.5,3.5,3.5h7c.276,0,.5.224.5.5s-.224.5-.5.5h-7c-2.481,0-4.5-2.019-4.5-4.5v-9.939c0-1.497.741-2.892,1.983-3.729L9.483.771c1.53-1.032,3.505-1.032,5.034,0l7.5,5.061c1.242.838,1.983,2.232,1.983,3.729Zm0,7.939c0,3.584-2.916,6.5-6.5,6.5s-6.5-2.916-6.5-6.5,2.916-6.5,6.5-6.5,6.5,2.916,6.5,6.5Zm-1,0c0-3.032-2.467-5.5-5.5-5.5s-5.5,2.468-5.5,5.5,2.467,5.5,5.5,5.5,5.5-2.468,5.5-5.5Zm-2.857-1.369l-2.706,2.618c-.336.331-.885.333-1.223.004l-1.363-1.345c-.196-.194-.513-.192-.707.004-.194.197-.192.514.005.707l1.364,1.347c.362.354.837.531,1.312.531s.951-.178,1.311-.533l2.703-2.614c.198-.192.204-.509.012-.707-.191-.198-.507-.203-.707-.012Z"/>
</svg>
